svgs/duotone/bridge-circle-xmark.svg

<svg xmlns="http://www.w3.org/2000/svg" viewBox="0 0 640 512"><!--! Font Awesome Pro 6.6.0 by @fontawesome - https://fontawesome.com License - https://fontawesome.com/license (Commercial License) Copyright 2024 Fonticons, Inc. --><defs><style>.fa-secondary{opacity:.4}</style></defs><path class="fa-secondary" d="M32 64c0-17.7 14.3-32 32-32l512 0c17.7 0 32 14.3 32 32s-14.3 32-32 32l-40 0 0 64 72 0 0 72.2C577.6 207.1 538.5 192 496 192c-69.1 0-128.9 39.8-157.7 97.7c-5.9-1.1-12-1.7-18.3-1.7c-53 0-96 43-96 96l0 64c0 17.7-14.3 32-32 32l-32 0c-17.7 0-32-14.3-32-32l0-64c0-53-43-96-96-96l0-128 72 0 0-64L64 96C46.3 96 32 81.7 32 64zM152 96l0 64 80 0 0-64-80 0zm128 0l0 64 80 0 0-64-80 0zm128 0l0 64 80 0 0-64-80 0z"/><path class="fa-primary" d="M352 368a144 144 0 1 1 288 0 144 144 0 1 1 -288 0zm203.3-59.3c-6.2-6.2-16.4-6.2-22.6 0L496 345.4l-36.7-36.7c-6.2-6.2-16.4-6.2-22.6 0s-6.2 16.4 0 22.6L473.4 368l-36.7 36.7c-6.2 6.2-6.2 16.4 0 22.6s16.4 6.2 22.6 0L496 390.6l36.7 36.7c6.2 6.2 16.4 6.2 22.6 0s6.2-16.4 0-22.6L518.6 368l36.7-36.7c6.2-6.2 6.2-16.4 0-22.6z"/></svg>

<svg xmlns="http://www.w3.org/2000/svg" viewBox="0 0 640 512"><!--! Font Awesome Pro 6.4.0 by @fontawesome - https://fontawesome.com License - https://fontawesome.com/license (Commercial License) Copyright 2023 Fonticons, Inc. --><defs><style>.fa-secondary{opacity:.4}</style></defs><path class="fa-primary" d="M352 368a144 144 0 1 1 288 0 144 144 0 1 1 -288 0zm203.3-59.3c-6.2-6.2-16.4-6.2-22.6 0L496 345.4l-36.7-36.7c-6.2-6.2-16.4-6.2-22.6 0s-6.2 16.4 0 22.6L473.4 368l-36.7 36.7c-6.2 6.2-6.2 16.4 0 22.6s16.4 6.2 22.6 0L496 390.6l36.7 36.7c6.2 6.2 16.4 6.2 22.6 0s6.2-16.4 0-22.6L518.6 368l36.7-36.7c6.2-6.2 6.2-16.4 0-22.6z"/><path class="fa-secondary" d="M32 64c0-17.7 14.3-32 32-32H576c17.7 0 32 14.3 32 32s-14.3 32-32 32H536v64h72v72.2C577.6 207.1 538.5 192 496 192c-69.1 0-128.9 39.8-157.7 97.7c-5.9-1.1-12-1.7-18.3-1.7c-53 0-96 43-96 96v64c0 17.7-14.3 32-32 32H160c-17.7 0-32-14.3-32-32V384c0-53-43-96-96-96V160h72V96H64C46.3 96 32 81.7 32 64zM408 96v64h80V96H408zm-48 64V96H280v64h80zM152 96v64h80V96H152z"/></svg>
